libs/icons/svgs/operators_less_than_or_equal.svg

<svg xmlns="http://www.w3.org/2000/svg" viewBox="0 0 24 24"><path  d="m9 6 1.41 1.41L5.83 12l4.58 4.59L9 18l-6-6 6-6Zm12 8v2h-8v-2h8Zm0-6v2h-8V8h8Z" /></svg>

<?xml version="1.0" encoding="UTF-8"?>
<svg width="24px" height="24px" viewBox="0 0 24 24" version="1.1" xmlns="http://www.w3.org/2000/svg" xmlns:xlink="http://www.w3.org/1999/xlink">
    <title>Less than or equal to</title>
    <path fill="#000000" d="M21,10 L13,10 L13,8 L21,8 L21,10 Z M21,16 L13,16 L13,14 L21,14 L21,16 Z M9,6 L10.41,7.41 L5.83,12 L10.41,16.59 L9,18 L3,12 L9,6 Z"></path>
</svg>
